X: 23
T: Congress, The
C: Joe Mills
Z: SamiC
S: https://thesession.org/tunes/208#setting47056
R: reel
M: 4/4
L: 1/8
K: Ador
|:eAAG A2 (3Bcd|eaaf gedg|eAA2 eAcA|BGGA Bdeg|
eAAG ABcd|eaaf gedB|cBcd (3efg ed|cABG A2 (3Bcd:|
|:eaag a3 g|eaag egdg|(3efg dg egdg|eaaf gedg|
eaag a3 g|eaag (3efg dB|cBcd (3efg ed|cABG A2 (3Bcd:|

